!!!OTL: Es war einmal ein Kaufmannssohn (Band 1), S. 75
!!!id: P0799
**kern
*clefG2
*k[b-]
*f:
{8c
=1
8f
8g
8.a-
16a-
=2
8b-
8cc
8a-}
=3
{8f
=4
8cc
16b-
16b-
8.cc
16cc
=5
8dd-
8b-
8cc}
=6
{8a-
=7
8cc
8cc
8cc
8b-
=8
4cc
8b-}
=9
{8a-
=10
8a-
8a-
8g}
=11
{8f
=12
8b-
8cc
8a-
8f
=13
8cc
8cc
16a-
8g
16f
=14
4e
8f}
==
*-
!!!minrhy: 16
!!!meters: 2/4 ]  ZZ[5
!!!cut: Es war einmal ein Kaufmannssohn (Band 1), S. 75
!!!reg: Lothringen
!!!trd: PINCK, Louis: Verklingende Weisen, Bd 1, Metz 1928
!!!rhy1: X_  X_X_X_.X  X_X_X_
!!!rhy2: X_  X_XXX_.X  X_X_X_
!!!key: P0799  16  F 2/4 ]  ZZ[5
!!!mod: HEPTATONIK HARMONISCH MOLL]  AMBITUS[9b
!!!kad: 3b5421
!!!akz: 14_56b_55_3b_45-7_
!!!fot: 'a__as"b__c__d__
!!!for: 'a__b__c__aw_aw_
!!!fok: '^a_/__/__\__^__
!! PHRAS[AUFTAKTIG]
!!!fkt: Liebe, Standesunterschied, Mord
!! LOTH VKL
!! PR[18] 2K[4] 2G[27] 3K[2] 3G[0] 4A[9] 4Ü[0] 5A[0] 6K[0] 6G[0]
!! 7K[0] 7G[0] 8A[0] MEHR[0] SI[42] ABS[45] SR[31] SP[11]
!! ST[0] 2k[7] 2g[24] 3k[0] 3g[2] 4d[7] 4ü[0] 5d[0] 6k[0] 6g[0]
!! 7k[0] 7g[0] 8d[0] mehr[0] si[40] dm[+2] sr[31] sp[9]
!! 1F[2] 2F[61] 3F[30] 4F[0] LF[0] 2P[2] 3P[4] 4P[0] TRI[0] DF[5] AB[46]
!! TF[0] U3K[0] U3[0] U4[0] U4Ü[0] U5[13] U6K[0] U6[4] U7K[0] U7[2]
!! N1[26] N2K[0] N2[26] N3K[0] N3[17] N4[9] N4Ü[0] N5[2] N6K[0] N6[0]
!!!n7k: 0] N7[0] O1[0] O2K[0] O2[0] O3K[0] O3[0] HÖ[0
